X:1
T:[ID 6v-8a (= 6-96a)]
T:[ID 6v-8a (= 6-96a)]
T:Bezeichnung standardisiert: Dessauer Marsch; March de Desso 9.
T:Urheber unbekannt Datum in der hier transkribierten schriftlichen Quelle: 1775
C:Urheber unbekannt
C:Datum in der hier transkribierten schriftlichen Quelle: 1775
L:1/8
M:4/4
K:D
V:1 treble 
V:1
 F | F2 FE D2 F2 | F2 FE D2 F2 | FEFA dAFA | dcde f2 ed | cBcd c2 z :: A | cdcB AE C2 | cBcd e4 | %9
 dcde f2 ed | A3 G F2 :| !fermata!F | FF/E/DF | FF/E/DF | FEFA dAFA | dcde f2 ed | cBcd c2 z :| %17

